icons/Design/ruler-2-line.svg

<svg viewBox="0 0 24 24" xmlns="http://www.w3.org/2000/svg"><path d="M17 19H19V14H10V5H5V7H7V9H5V11H8V13H5V15H7V17H5V19H7V17H9V19H11V16H13V19H15V17H17V19ZM12 12H20C20.5523 12 21 12.4477 21 13V20C21 20.5523 20.5523 21 20 21H4C3.44772 21 3 20.5523 3 20V4C3 3.44772 3.44772 3 4 3H11C11.5523 3 12 3.44772 12 4V12Z"/></svg>

<svg xmlns="http://www.w3.org/2000/svg" viewBox="0 0 24 24">
    <g>
        <path fill="none" d="M0 0h24v24H0z"/>
        <path d="M17 19h2v-5h-9V5H5v2h2v2H5v2h3v2H5v2h2v2H5v2h2v-2h2v2h2v-3h2v3h2v-2h2v2zm-5-7h8a1 1 0 0 1 1 1v7a1 1 0 0 1-1 1H4a1 1 0 0 1-1-1V4a1 1 0 0 1 1-1h7a1 1 0 0 1 1 1v8z"/>
    </g>
</svg>
